packages/icons/svg/Fill/shopping-cart.svg

<svg width="24" height="24" viewBox="0 0 24 24" fill="none" xmlns="http://www.w3.org/2000/svg">
<g id="Icon/Fill/shopping-cart">
<path id="Mask" fill-rule="evenodd" clip-rule="evenodd" d="M21.083 6.94818C20.716 6.35418 20.08 6.00018 19.382 6.00018H6.582L5.965 3.73718C5.846 3.30218 5.451 3.00018 5 3.00018H3C2.447 3.00018 2 3.44818 2 4.00018C2 4.55218 2.447 5.00018 3 5.00018H4.236L7.035 15.2632C7.154 15.6982 7.549 16.0002 8 16.0002H17C17.379 16.0002 17.725 15.7862 17.895 15.4472L21.171 8.89418C21.483 8.26918 21.45 7.54218 21.083 6.94818ZM7.5 18C6.672 18 6 18.671 6 19.5C6 20.329 6.672 21 7.5 21C8.328 21 9 20.329 9 19.5C9 18.671 8.328 18 7.5 18ZM16 19.5C16 18.671 16.672 18 17.5 18C18.328 18 19 18.671 19 19.5C19 20.329 18.328 21 17.5 21C16.672 21 16 20.329 16 19.5Z" fill="#000000"/>
</g>
</svg>

<svg fill="none" height="24" viewBox="0 0 24 24" width="24" xmlns="http://www.w3.org/2000/svg"><path clip-rule="evenodd" d="m21.083 6.94824c-.367-.594-1.003-.948-1.701-.948h-12.79998l-.617-2.263c-.119-.435-.514-.737-.965-.737h-2c-.553 0-1 .448-1 1s.447 1 1 1h1.236l2.799 10.26296c.119.435.514.737.965.737h8.99998c.379 0 .725-.214.895-.553l3.276-6.55296c.312-.625.279-1.352-.088-1.946zm-13.583 11.05176c-.828 0-1.5.671-1.5 1.5s.672 1.5 1.5 1.5 1.5-.671 1.5-1.5-.672-1.5-1.5-1.5zm8.5 1.5c0-.829.672-1.5 1.5-1.5s1.5.671 1.5 1.5-.672 1.5-1.5 1.5-1.5-.671-1.5-1.5z" fill="#6b7280" fill-rule="evenodd"/></svg>
